X: 3
T: Cooley's Reel
M: C|
L: 1/8
R: reel
K: Edor
F2|"Em"EBBA B2 EB | B2 AB dBAG | "D"(3FED AD BDAD | (3FED AD BAGF |
"Em"EBBA B2 EB | B2 AB defg | "D"afec dBAF| "Bm"DEFD "Em"E2:||
|:gf|"Em"eB (3BBB eBgf | eB (3BBB gedB | "D"A2 FA DAFA | BAFA "Bm"defg |
"Em"eB (3BBB eBgf | eB (3BBB defg|"D"afec ["cont" dBAF| "Bm"DEFD "Em"E2:|
["trans" "Bm"dBAF|"Em".E2z2 "E7"A3F|

